svg/u1f3af.svg

<svg viewBox="0 0 128 128" xmlns="http://www.w3.org/2000/svg">
  <path d="M63.04,7.57C36.72,6.97,7.69,28.8,8.25,64.16c0.49,31.09,23.85,54.62,54.12,55.11 c30.27,0.49,57.09-19.52,57.25-55.27C119.79,27.97,91.99,8.23,63.04,7.57z" fill="#FF2A23"/>
  <path d="M63.12,20.19C42.24,20.9,21.17,36.48,20.68,63.95c-0.49,27.47,23.52,42.77,42.44,42.77 c24.02,0,44.09-18.92,43.59-44.09C106.22,37.47,87.3,19.37,63.12,20.19z" fill="#FFFDFE"/>
  <path d="M63.61,30.89c-18.92-0.43-32.9,16.29-33.07,32.24c-0.16,16.29,10.03,32.9,32.74,33.72 s33.39-17.27,33.72-32.57C97.34,48.98,85.16,31.38,63.61,30.89z" fill="#FF2A23"/>
  <path d="M41.98,63.73c-0.16,14.31,10.03,22.54,22.37,22.54c11.21,0,22.21-7.07,22.21-22.04 c0-13.49-10.2-21.55-21.55-22.04C53.66,41.69,42.14,49.92,41.98,63.73z" fill="#FFFFFF"/>
  <path d="M52.1,63.62c-0.61,8.53,6.33,12.61,12.58,12.61c5.92,0,11.76-3.89,11.93-11.79 c0.15-7.42-5.67-11.95-11.93-12.17C58.22,52.05,52.59,56.69,52.1,63.62z" fill="#FB2B22"/>
  <path d="M66.74,64.29l-3.35,1.86l6.39,9.09c0,0,4.94,0.38,6.08-0.91s-0.15-5.09-0.15-5.09L66.74,64.29z" fill="#CC1935"/>
  <path d="M87.42,54.41c-0.9-1.86-1.82-3.35-4.26-2.89c-2.43,0.46-6.92,3.04-7.76,4.26 c-0.77,1.12-1.52,2.51-1.52,2.51s-8.6,4.7-9.96,5.47c-2.13,1.22-0.66,3.7,0.84,3.42c2.05-0.38,11.21-4.11,11.21-4.11 s1.94,0.46,3.08,0.46c1.14,0,7.64-3.21,8.52-3.8C89.02,58.74,88.33,56.31,87.42,54.41z" fill="#ACB1B5"/>
  <path d="M75.68,69.22c0,0-0.48,1.7-2.23,3.46c-1.82,1.82-3.69,2.54-3.69,2.54l5.77,8.46 c0,0,4.29,0.31,7.41-2.73s1.76-7.02,1.76-7.02L75.68,69.22z" fill="#C8C8C8"/>
  <path d="M81.4,92.57l-5.88-8.9c0,0,0.98-0.52,2.27-1.4c2.37-1.62,3.69-2.91,5.38-5.55 c0.92-1.42,1.51-2.8,1.51-2.8l9.09,4.49c0,0-0.2,7.02-3.17,10.44S81.4,92.57,81.4,92.57z" fill="#CC1935"/>
  <path d="M81.4,92.57l5.05,7.57c0,0,6.59,0.65,11.99-5.82s3.96-11.79,3.96-11.79l-8.63-4.13 c0,0-1.68,4.04-5.02,7.92S81.4,92.57,81.4,92.57z" fill="#C8C8C8"/>
  <path d="M93.93,111.33l-7.47-11.18c0,0,5.63-3.29,9.63-8.02c4.15-4.91,6.32-9.58,6.32-9.58l12.09,6.01 c0,0-2.72,7.03-8.75,13.38C99.85,108.13,93.93,111.33,93.93,111.33z" fill="#CC1935"/>
  <path d="M81.61,57.37c1.13,2.11,3,2.13,4.98,1.29c1.98-0.84,11.33-7.45,11.33-7.45s12.7,6.39,20.91,3.19 c8.21-3.19,7.98-11.86,7.98-11.86l-4.86-3.08c0,0,3.54-1.84,4.68-2.52c0.56-0.34,1.39-1.6,0.93-2.73c-0.36-0.88-1.74-1.18-2.88-0.72 c-1.14,0.46-4.43,1.49-4.43,1.49s1.31-5.45,1.08-5.75c-0.23-0.3-2.59-1.52-2.59-1.52s-7.68,0-8.67,0.38 c-0.99,0.38-8.59,7.91-8.59,7.91l-3.65,7.45l-1.56,3.32c0,0-10.65,4.77-12.25,5.45C82.43,52.91,80.22,54.8,81.61,57.37z" fill="#006CA9"/>
  <path d="M98.54,45.85c0,0,4.48-3.24,7.67-4.84s9.11-3.55,10.86-3.76c1.75-0.21,2.47,0.26,2.78,1.08 c0.31,0.82-0.72,1.85-1.6,2.32c-0.87,0.46-5.51,2.57-10.65,5.3s-7.58,4.73-9.66,5.2c-1.05,0.24-2.4-0.7-2.48-2.27 c-0.06-1.22,0.18-2.24,0.98-4.58c0.98-2.88,3.13-7.21,4.94-10.03c2.68-4.17,6.54-7,10.81-7.77c4.27-0.77,7.77,0.31,8.65,1.03 c0.87,0.72,0.82,1.46,0.51,1.71c-0.31,0.25-0.77,0.45-3.09-0.37c-1.61-0.57-6.74-0.57-10.34,2.11c-3.64,2.7-4.53,4.37-6.12,7.31 S98.54,45.85,98.54,45.85z" fill="#1F87FD"/>
</svg>

<svg viewBox="0 0 128 128" xmlns="http://www.w3.org/2000/svg">
  <defs/>
  <path d="M63.04,7.57 C36.72,6.97 7.69,28.8 8.25,64.16 C8.74,95.25 32.1,118.78 62.37,119.27 C92.64,119.76 119.46,99.75 119.62,64 C119.79,27.97 91.99,8.23 63.04,7.57 Z" fill="#FF2A23"/>
  <path d="M63.12,20.19 C42.24,20.9 21.17,36.48 20.68,63.95 C20.19,91.42 44.2,106.72 63.12,106.72 C87.14,106.72 107.21,87.8 106.71,62.63 C106.22,37.47 87.3,19.37 63.12,20.19 Z" fill="#FFFDFE"/>
  <path d="M63.61,30.89 C44.69,30.46 30.71,47.18 30.54,63.13 C30.38,79.42 40.57,96.03 63.28,96.85 C85.99,97.67 96.67,79.58 97,64.28 C97.34,48.98 85.16,31.38 63.61,30.89 Z" fill="#FF2A23"/>
  <path d="M41.98,63.73 C41.82,78.04 52.01,86.27 64.35,86.27 C75.56,86.27 86.56,79.2 86.56,64.23 C86.56,50.74 76.36,42.68 65.01,42.19 C53.66,41.69 42.14,49.92 41.98,63.73 Z" fill="#FFFFFF"/>
  <path d="M52.1,63.62 C51.49,72.15 58.43,76.23 64.68,76.23 C70.6,76.23 76.44,72.34 76.61,64.44 C76.76,57.02 70.94,52.49 64.68,52.27 C58.22,52.05 52.59,56.69 52.1,63.62 Z" fill="#FB2B22"/>
  <path d="M66.74,64.29 L63.39,66.15 L69.78,75.24 C69.78,75.24 74.72,75.62 75.86,74.33 C77,73.04 75.71,69.24 75.71,69.24 L66.74,64.29 Z" fill="#CC1935"/>
  <path d="M87.42,54.41 C86.52,52.55 85.6,51.06 83.16,51.52 C80.73,51.98 76.24,54.56 75.4,55.78 C74.63,56.9 73.88,58.29 73.88,58.29 C73.88,58.29 65.28,62.99 63.92,63.76 C61.79,64.98 63.26,67.46 64.76,67.18 C66.81,66.8 75.97,63.07 75.97,63.07 C75.97,63.07 77.91,63.53 79.05,63.53 C80.19,63.53 86.69,60.32 87.57,59.73 C89.02,58.74 88.33,56.31 87.42,54.41 Z" fill="#ACB1B5"/>
  <path d="M75.68,69.22 C75.68,69.22 75.2,70.92 73.45,72.68 C71.63,74.5 69.76,75.22 69.76,75.22 L75.53,83.68 C75.53,83.68 79.82,83.99 82.94,80.95 C86.06,77.91 84.7,73.93 84.7,73.93 L75.68,69.22 Z" fill="#C8C8C8"/>
  <path d="M81.4,92.57 L75.52,83.67 C75.52,83.67 76.5,83.15 77.79,82.27 C80.16,80.65 81.48,79.36 83.17,76.72 C84.09,75.3 84.68,73.92 84.68,73.92 L93.77,78.41 C93.77,78.41 93.57,85.43 90.6,88.85 C87.63,92.27 81.4,92.57 81.4,92.57 Z" fill="#CC1935"/>
  <path d="M81.4,92.57 L86.45,100.14 C86.45,100.14 93.04,100.79 98.44,94.32 C103.84,87.85 102.4,82.53 102.4,82.53 L93.77,78.4 C93.77,78.4 92.09,82.44 88.75,86.32 C85.41,90.2 81.4,92.57 81.4,92.57 Z" fill="#C8C8C8"/>
  <path d="M93.93,111.33 L86.46,100.15 C86.46,100.15 92.09,96.86 96.09,92.13 C100.24,87.22 102.41,82.55 102.41,82.55 L114.5,88.56 C114.5,88.56 111.78,95.59 105.75,101.94 C99.85,108.13 93.93,111.33 93.93,111.33 Z" fill="#CC1935"/>
  <path d="M81.61,57.37 C82.74,59.48 84.61,59.5 86.59,58.66 C88.57,57.82 97.92,51.21 97.92,51.21 C97.92,51.21 110.62,57.6 118.83,54.4 C127.04,51.21 126.81,42.54 126.81,42.54 L121.95,39.46 C121.95,39.46 125.49,37.62 126.63,36.94 C127.19,36.6 128.02,35.34 127.56,34.21 C127.2,33.33 125.82,33.03 124.68,33.49 C123.54,33.95 120.25,34.98 120.25,34.98 C120.25,34.98 121.56,29.53 121.33,29.23 C121.1,28.93 118.74,27.71 118.74,27.71 C118.74,27.71 111.06,27.71 110.07,28.09 C109.08,28.47 101.48,36 101.48,36 L97.83,43.45 L96.27,46.77 C96.27,46.77 85.62,51.54 84.02,52.22 C82.43,52.91 80.22,54.8 81.61,57.37 Z" fill="#006CA9"/>
  <path d="M98.54,45.85 C98.54,45.85 103.02,42.61 106.21,41.01 C109.4,39.41 115.32,37.46 117.07,37.25 C118.82,37.04 119.54,37.51 119.85,38.33 C120.16,39.15 119.13,40.18 118.25,40.65 C117.38,41.11 112.74,43.22 107.6,45.95 C102.46,48.68 100.02,50.68 97.94,51.15 C96.89,51.39 95.54,50.45 95.46,48.88 C95.4,47.66 95.64,46.64 96.44,44.3 C97.42,41.42 99.57,37.09 101.38,34.27 C104.06,30.1 107.92,27.27 112.19,26.5 C116.46,25.73 119.96,26.81 120.84,27.53 C121.71,28.25 121.66,28.99 121.35,29.24 C121.04,29.49 120.58,29.69 118.26,28.87 C116.65,28.3 111.52,28.3 107.92,30.98 C104.28,33.68 103.39,35.35 101.8,38.29 C100.21,41.23 98.54,45.85 98.54,45.85 Z" fill="#1F87FD"/>
</svg>
